X:1
T:Lady, those eyes - Morley
T:James Gibb editions
T:#
%%score { 1 | 2 } 3
L:1/8
M:4/4
K:G
V:1 treble nm="Soprano I" snm="S"
V:2 treble 
V:3 treble-8 nm="Tenor" snm="T"
V:1
"^Lady, those eyes""^Thomas Morley\n(1557-1603)" G4 G2 A2 | B2 G2 B2 c2 | d4 d2 cB | A2 d2 c2 A2 | %4
w: La- dy, those|eyes, those eyes of|yours, La- dy, those|eyes, those eyes of|
[M:4/4] B2 d4 c2 | B3 c B2 AG | F2 F2 E2 A2 | G2 =F2 E4 | F4 z2 d2 | d2 d2 e4- | e2 d2 ^c2 (Bc) | %11
w: yours, La- dy,|those fair eyes, La- dy|mine, those eyes that|shine so clear-|ly: Why|do you hide,|* why do you *|
 d6 =c2 | B2 (AB) c2 B2 | A4 z2 B2 | B2 B2 ^c2 c2 | d6 e2 | =f4 f4 | e8 | d8 | z8 | z4 z2 d2 | %21
w: hide, why|do you * hide from|me, that|bought their beams, that|bought their|beams so|dear-|ly?||Think|
 e2 f2 g2 e2 | f4 e2 d2 | ^c2 d2 d2 c2 | d2 d2 z2 d2- | d2 c2 B2 g2 | e4 d2 G2 | F2 G2 A2 d2 | %28
w: not when thou ex-|il'st me, less|heat in me so-|journ- eth. O|* no, no, O|no, no, O|no, O no, then|
 c (B2 A/G/) A4 | B8 | d2 dd e2 f2 | g4 e4 |[Q:1/4=120][Q:1/4=120] f4 d4 | B2 BB B2 (AB) | %34
w: thou be\- * * guil'st|thee.|Love doth but shine, but|shine in|thee, no,|Love doth but shine in *|
 c2 g2 g=fed | c2 A4 d2 | dcBA G4 | g2 g=f edcB | A2 c2 cBAG | F2 D2 (G4- | G2 FE F4) | G8 | %42
w: thee, but O in me, in|me, O, O|but in me, in me,|but O in me, in me, in|me, but O in me, in|me he burn\-||eth.|
 B2 AB c2 A2 | Bc d4 ^c2 | d8 | d2 dd g2 =f2 | e2 e2 edcB | AGF(E F G2 F) | G2 d2 dcBA | %49
w: Love doth but shine in|thee in thee, in|thee,|Love doth but shine in|thee, in thee, in thee, in|thee, in thee, in * * *|thee, but O in me, in|
 G2 g2 g=fed | c2 e2[Q:1/4=119] e[Q:1/4=118]d[Q:1/4=118]c[Q:1/4=117]B | %51
w: me, but O in me, in|me, but O in me, in|
[Q:1/4=115] A4[Q:1/4=113] B2[Q:1/4=111] c2 |[Q:1/4=108] (d6[Q:1/4=106] c2) |[Q:1/4=102] B8 |] %54
w: me, O he|burn\- *|eth.|
V:2
 z8 | z8 | D4 D2 E2 | F2 D2 E2 F2 |[M:4/4] G2 B4 A2 | G2 d4 cB | A2 d2 c2 =f2 | e2 d4 ^c2 | %8
w: ||La- dy, those|eyes, those eyes of|yours, La- dy,|those eyes, La- dy|mine, of yours that|shine so clear-|
 d2 A2 A2 A2 | B4 ^G4 | A6 G2 | F2 (G3 F/E/ F2) | G4 A2 G2 | F2 d2 d2 d2 | g4 e4 | =f6 e2 | %16
w: ly: Why do you|hide, why|do you|hide from * * *|me, hide from|me, that bought their|beams, that|bought their|
 d4 A2 (d2- | d2 ^cB c4) | d4 z2 d2 | c2 A2 B2 c2 | d4 B2 B2 | ^c2 d2 d2 c2 | d2 d2 z2 d2 | %23
w: beams so dear\-||ly? Think|not when tho ex-|il'st me, less|heat in me so-|journ- eth, less|
 e2 f2 g2 e2 | f2 d2 d2 =f2- | f2 e4 d2 | z2 c4 B2 | A2 d2 c2 B2 | AG G4 F2 | G8 | B2 AB c2 A2 | %31
w: heat in me so-|journ- eth. O no,|* O no,|no, O|no, no, no, then|thou be- guil- est|thee.|Love doth but shine in|
 Bc d4 ^c2 | d8 | d2 dd g2 =f2 | e2 e2 edcB | AGF(E F G2 F) | G2 d2 dcBA | G2 g2 g=fed | %38
w: thee, in thee, in|thee,|Love doth but shine in|thee, in thee, in thee, in|thee, in thee in * * *|thee, but O in me, in|me, but O in me, in|
 c2 e2 edcB | A4 B2 c2 | (d6 c2) | B8 | d2 dd e2 f2 | g4 e4 | f4 d4 | B2 BB B2 (AB) | c2 g2 g=fed | %47
w: me, but O in me, in|me, O he|burn\- *|eth.|Love doth but shine but|shine in|thee, no,|Love doth but shine in *|thee, but O in me, in|
 c2 A4 d2 | dcBA G4 | g2 g=f edcB | A2 c2 cBAG | F2 D2 (G4- | G2 FE F4) | G8 |] %54
w: me, O, but|O in me, in me,|but O in me, in me, in|me, but O in me, in|me he burn\-||eth.|
V:3
 z8 | z8 | z8 | z8 |[M:4/4][K:treble-8] G4 G2 A2 | B2 G2 B2 c2 | d2 d2 A3 B | c2 d2 A4 | d8 | z8 | %10
w: ||||La- dy, those|eyes, those eyes of|yours, those eyes that|shine so clear-|ly:||
 z8 | d4 d2 d2 | e4 c4 | d4 g4 | e4 a4 | d8- | d4 d4 | A8 | d4 z2 d2 | e2 f2 g2 e2 | f4 g3 f | %21
w: |Why do you|hide from|me, that|bought their|beams|* so|dear-|ly? Think|not when thou ex-|il'st me, less|
 e2 d2 e2 e2 | d4 ^c2 d2 | A2 d2 G2 A2 | d2 d4 d2 | A4 B4 | c4 G4 | d2 cB A2 B2 | c2 e2 d4 | G8 | %30
w: heat in me so-|journ- eth, less|heat in me so-|journ- eth. O|no, O|no, no,|O no, no, no, then|thou be- guil'st|thee.|
 g2 gg c2 d2 | g4 a4 | d8 | g2 gg g2 g2 | c8 | z2 d2 dcBA | G4 z2 g2 | g=fed c2 c2 | =ffed c4 | %39
w: Love doth but shine, but|shine in|thee,|Love doth but shine in|thee,|but O in me, in|me, but|O in me, in me, but|O in me, in me,|
 d8 | d8 | G8 | g2 gg c2 d2 | g4 a4 | d8 | g2 gg g2 g2 | c8 | z2 d2 dcBA | G4 z2 g2 | g=fed c2 c2 | %50
w: he|burn-|eth.|Love doth but shine, but|shine in|thee|Love doth but shine in|thee,|but O in me, in|me, But|O in me, in me, but|
 =ffed c4 | d8 | d8 | G8 |] %54
w: O in me, in me|he|burn-|eth.|

